X:1
T:Future, LM
T:Future, LM
T:Nils Frykman, 1883
T:Public Domain Courtesy of the Cyber Hymnal™
C:Nils Frykman, 1883
Z:Public Domain
Z:Courtesy of the Cyber Hymnal™
%%score ( 1 2 ) ( 3 4 )
L:1/8
Q:1/4=95
M:3/4
K:D
V:1 treble 
V:2 treble 
V:3 bass 
V:4 bass 
V:1
 AF D | [CE]3 [CG] [A,C][CE] | D3 D [DF][FA] | [Ad]3 [GB] G[GB] | [FA]3 | [FA][Fd] [FB] | %6
 [EG]3 [EA] [DF]D | [DF]3 [DA] [CG][A,C] | [CE]3 [CB] [DA][A,C] | [A,D]3 |] %10
V:2
 AF D | x6 | D3 D x2 | x4 G x | x3 | x3 | x5 D | x6 | x6 | x3 |] %10
V:3
 A,F, D, | [A,,A,]3 [A,,A,] [A,,G,][A,,G,] | [D,F,]3 [D,F,] [D,A,][D,D] | [F,D]3 [G,D] [B,D][G,D] | %4
 [D,D]3 | [D,D][D,A,] [D,B,] | [E,B,]3 [C,A,] [D,A,][D,F,] | [D,A,]3 [F,,A,] [A,,A,][A,,A,] | %8
 [A,,G,]3 [A,,G,] [A,,F,][A,,E,] | [D,F,]3 |] %10
V:4
 A,F, D, | x6 | x6 | x6 | x3 | x3 | x6 | x6 | x6 | x3 |] %10

